outputs/icons/hardware/tablet_round.svg

<svg xmlns="http://www.w3.org/2000/svg" width="1200" height="1200" fill="none"><g clip-path="url(#a)"><path fill="#000" d="M1050 200H150c-55 0-100 45-100 100v600c0 55 45 100 100 100h900c55 0 99.5-45 99.5-100l.5-600c0-55-45-100-100-100M950 900H250V300h700z"/></g><defs><clipPath id="a"><path fill="#fff" d="M0 0h1200v1200H0z"/></clipPath></defs></svg>

<svg width="1200" height="1200" viewBox="0 0 1200 1200" fill="none" xmlns="http://www.w3.org/2000/svg"><g clip-path="url(#clip0_238_1271)"><path d="M1050 200H150C95 200 50 245 50 300V900C50 955 95 1000 150 1000H1050C1105 1000 1149.5 955 1149.5 900L1150 300C1150 245 1105 200 1050 200ZM950 900H250V300H950V900Z" fill="black"/></g><defs><clipPath id="clip0_238_1271"><path width="24" fill="white" d="M0 0H1200V1200H0V0z"/></clipPath></defs></svg>
